X:6785
T:Happy Land Schottische
C:Andy De Jarlis
M:4/4
L:1/8
K:G
D2|G>FG>A B>cB>A|G>Be>B d2 d2|c>AF>A D>FA>c|B>AG>B D2 D2|
G>FG>A B>cB>A|G>Be>B d2 d2|f>gf>e d>cB>A|G2 B2 G2:|
|:z2|c>Bc>d e>gf>e|d>BG>B d2 d2|c>AF>A D>FA>c|B>AG>B d2 d2|
c>Bc>d e>gf>e|d>BG>B d2 d2|f>gf>e d>cB>A|G2 B2 G2:|


